images/svg/features/astronaut.svg

<svg width="64" height="64" viewBox="0 0 64 64" fill="none" xmlns="http://www.w3.org/2000/svg">
<path d="M63.9481 9.04812C63.8222 8.66299 63.4894 8.38149 63.0873 8.32274L59.2665 7.76698L57.5566 4.30455C57.1982 3.57492 56.0025 3.57492 55.6441 4.30455L53.9342 7.76698L50.1132 8.32286C49.7111 8.38149 49.3784 8.66212 49.2514 9.04825C49.1266 9.43438 49.23 9.85889 49.5212 10.1416L52.2872 12.8372L51.6344 16.6431C51.5661 17.0431 51.7304 17.4474 52.0579 17.6864C52.3897 17.9275 52.8227 17.9573 53.1822 17.7674L56.5998 15.97L60.0175 17.7674C60.1733 17.8495 60.345 17.89 60.5146 17.89C60.7354 17.89 60.9563 17.8218 61.1419 17.6863C61.4704 17.4474 61.6347 17.043 61.5654 16.643L60.9127 12.8371L63.6786 10.1415C63.9683 9.85776 64.073 9.43425 63.9481 9.04812ZM59.0223 11.702C58.7716 11.9463 58.6564 12.3004 58.7161 12.6461L59.098 14.8743L57.097 13.8226C56.9412 13.7404 56.7706 13.6999 56.5998 13.6999C56.4292 13.6999 56.2596 13.7404 56.1027 13.8226L54.1016 14.8743L54.4834 12.6461C54.5432 12.3004 54.4279 11.9474 54.1773 11.702L52.557 10.1234L54.7949 9.79801C55.1427 9.74788 55.4424 9.52926 55.5982 9.2145L56.5987 7.18785L57.5992 9.2145C57.755 9.52913 58.0547 9.74788 58.4025 9.79801L60.6404 10.1234L59.0223 11.702Z" fill="#4D5AE5"/>
<path d="M52.267 41.0444H50.1335V43.1778H52.267V41.0444Z" fill="#4D5AE5"/>
<path d="M52.267 45.3112H50.1335V47.4445H52.267V45.3112Z" fill="#4D5AE5"/>
<path d="M54.4004 43.1777H52.267V45.3111H54.4004V43.1777Z" fill="#4D5AE5"/>
<path d="M50.1337 43.1777H48.0002V45.3111H50.1337V43.1777Z" fill="#4D5AE5"/>
<path d="M44.8001 52.778H42.6667V54.9113H44.8001V52.778Z" fill="#4D5AE5"/>
<path d="M44.8001 57.0447H42.6667V59.1781H44.8001V57.0447Z" fill="#4D5AE5"/>
<path d="M46.9336 54.9114H44.8002V57.0448H46.9336V54.9114Z" fill="#4D5AE5"/>
<path d="M42.6667 54.9114H40.5333V57.0448H42.6667V54.9114Z" fill="#4D5AE5"/>
<path d="M32 48.5112H29.8666V50.6446H32V48.5112Z" fill="#4D5AE5"/>
<path d="M32 52.778H29.8666V54.9113H32V52.778Z" fill="#4D5AE5"/>
<path d="M34.1334 50.6445H32V52.7779H34.1334V50.6445Z" fill="#4D5AE5"/>
<path d="M29.8666 50.6445H27.7332V52.7779H29.8666V50.6445Z" fill="#4D5AE5"/>
<path d="M11.733 12.2439H9.59961V14.3773H11.733V12.2439Z" fill="#4D5AE5"/>
<path d="M11.733 16.5107H9.59961V18.6442H11.733V16.5107Z" fill="#4D5AE5"/>
<path d="M13.8663 14.3773H11.7329V16.5107H13.8663V14.3773Z" fill="#4D5AE5"/>
<path d="M9.59971 14.3773H7.46631V16.5107H9.59971V14.3773Z" fill="#4D5AE5"/>
<path d="M49.4295 28.3189C48.8546 27.5434 48.0109 27.0443 47.053 26.9098C46.0908 26.7733 45.1414 27.026 44.3734 27.6138L41.8699 29.5327L41.8688 29.5338L38.0734 32.368L35.3577 31.2863C40.2004 29.1135 43.585 24.2697 43.585 18.6461C43.585 11.0001 37.3396 4.7793 29.6627 4.7793C21.9858 4.7793 15.7405 11.0001 15.7405 18.6461C15.7405 21.4174 16.5692 23.9945 17.9805 26.163L12.4529 26.115C12.4497 26.115 12.4465 26.115 12.4433 26.115C12.4262 26.115 12.4124 26.1235 12.3964 26.1246C12.2908 26.1289 12.1873 26.1503 12.086 26.1865C12.0604 26.1961 12.0338 26.2015 12.0093 26.2131C11.9965 26.2185 11.9837 26.2195 11.9709 26.2259L5.50468 29.4184C5.50356 29.4184 5.50256 29.4184 5.50256 29.4194L1.71575 31.2405C1.67412 31.2586 1.6315 31.2831 1.58987 31.3108C0.0804746 32.3156 -0.433659 34.289 0.393104 35.9018C0.833611 36.7594 1.5835 37.3909 2.50514 37.6799C2.86039 37.7908 3.22302 37.8453 3.58353 37.8453C4.16279 37.8453 4.73667 37.7034 5.26243 37.4229L8.03798 35.9466L12.566 33.6085L15.2797 33.5925L4.39629 44.4237C4.39529 44.4248 4.39417 44.4248 4.39304 44.4258L1.71563 47.0924C1.08312 47.7218 0.73536 48.557 0.73536 49.4477C0.73536 50.3374 1.08312 51.1746 1.71563 51.8051C2.36526 52.4515 3.21965 52.7758 4.07404 52.7758C4.92955 52.7758 5.78281 52.4515 6.43457 51.8051L9.06287 49.1875L12.5445 46.5879L14.3462 48.3821L10.8229 51.8904C10.8219 51.8915 10.8208 51.8915 10.8196 51.8925L8.14223 54.5592C7.50972 55.1886 7.16196 56.0237 7.16196 56.9145C7.16196 57.8041 7.50972 58.6414 8.14223 59.2719C8.79186 59.9183 9.64738 60.2425 10.5018 60.2425C11.3562 60.2425 12.2117 59.9183 12.8623 59.2719L15.5407 56.6052L19.8255 52.3385C19.8267 52.3374 19.8267 52.3364 19.8277 52.3353L21.8469 50.3352L21.8394 50.3277C21.8522 50.315 21.8703 50.3106 21.8832 50.2969L32.2151 38.9804L39.1571 39.9682C39.2072 39.9757 39.2573 39.9788 39.3075 39.9788C39.4366 39.9788 39.5613 39.948 39.6819 39.9021C39.7171 39.8893 39.748 39.8722 39.7811 39.8552C39.8195 39.836 39.86 39.8253 39.8964 39.8008L46.3231 35.5341C46.3466 35.5181 46.3593 35.4925 46.3817 35.4755C46.4073 35.4553 46.4393 35.4468 46.4627 35.4243L49.0056 33.0424C50.3288 31.8026 50.5111 29.7717 49.4295 28.3189ZM4.26079 35.5403C3.91416 35.7259 3.52053 35.7631 3.14402 35.6438C2.77064 35.5275 2.46776 35.2725 2.29063 34.928C1.9685 34.3008 2.15513 33.537 2.71939 33.1242L5.34668 31.8602L5.97919 33.7087L6.24482 34.4853L4.26079 35.5403ZM11.255 31.8848L8.15848 33.4849L7.64759 31.9915L7.28071 30.9183L11.3342 28.9172L11.255 31.8848ZM41.4539 18.644C41.4539 20.4808 41.0155 22.2132 40.256 23.763L31.8932 19.9645C31.8057 18.8179 31.2106 17.8141 30.3167 17.189L33.2447 7.46834C38.0001 8.98099 41.4539 13.4173 41.4539 18.644ZM17.876 18.644C17.876 12.1745 23.1646 6.91045 29.6649 6.91045C30.1706 6.91045 30.6655 6.95308 31.1551 7.01496L28.291 16.5224C28.2527 16.5212 28.2164 16.5106 28.1769 16.5106C26.1118 16.5106 24.4317 18.1853 24.4317 20.244C24.4317 22.3027 26.1118 23.9775 28.1769 23.9775C29.5657 23.9775 30.7657 23.2106 31.4132 22.0883L39.1381 25.5977C36.9887 28.4905 33.5486 30.3776 29.6648 30.3776C23.1646 30.3776 17.876 25.1135 17.876 18.644ZM29.7887 20.244C29.7887 21.1262 29.0654 21.8441 28.1769 21.8441C27.2884 21.8441 26.5651 21.1262 26.5651 20.244C26.5651 19.3619 27.2884 18.644 28.1769 18.644C29.0654 18.644 29.7887 19.3619 29.7887 20.244ZM4.92968 50.2925C4.45717 50.7608 3.69228 50.7598 3.2209 50.2936C2.99365 50.0664 2.86889 49.7667 2.86889 49.4477C2.86889 49.1299 2.99365 48.8301 3.2209 48.6051L5.14505 46.6882L6.84746 48.3832L4.92968 50.2925ZM11.3574 57.7594C10.8849 58.2276 10.119 58.2287 9.6475 57.7605C9.42025 57.5332 9.29549 57.2336 9.29549 56.9146C9.29549 56.5967 9.42025 56.297 9.6475 56.072L11.5729 54.1541L12.3783 54.9552L13.2764 55.8491L11.3574 57.7594ZM18.3208 50.8216C18.3196 50.8226 18.3186 50.8226 18.3175 50.8238L14.7878 54.3438L13.9824 53.5427L13.0843 52.6488L16.6107 49.1384C16.6107 49.1384 16.6107 49.1384 16.6107 49.1374C16.6119 49.1362 16.6129 49.1362 16.614 49.1352C16.694 49.0552 16.7441 48.9592 16.7932 48.8643C16.8071 48.8366 16.8337 48.8131 16.8455 48.7843C16.8786 48.7022 16.8839 48.6137 16.8967 48.5272C16.9031 48.4781 16.9245 48.4323 16.9245 48.3821C16.9245 48.3106 16.8989 48.2413 16.884 48.1708C16.8712 48.1068 16.8712 48.0417 16.8466 47.98C16.8061 47.8797 16.7367 47.7912 16.6642 47.7047C16.644 47.6812 16.6365 47.6513 16.6141 47.629C16.6141 47.629 16.6141 47.629 16.613 47.629C16.6119 47.628 16.6119 47.6257 16.6109 47.6247L13.3969 44.4247C13.3628 44.3905 13.3191 44.3767 13.2807 44.3479C13.2242 44.3042 13.1698 44.2637 13.1068 44.2327C13.0461 44.2028 12.9842 44.1847 12.9202 44.1675C12.8519 44.1483 12.7858 44.1334 12.7143 44.128C12.6492 44.1238 12.5884 44.1302 12.5234 44.1377C12.4519 44.1462 12.3848 44.1558 12.3154 44.1782C12.2482 44.1995 12.1885 44.2325 12.1267 44.2678C12.0872 44.2902 12.0424 44.2977 12.005 44.3254L8.45836 46.9729L6.6567 45.1788L11.4547 40.4065L20.1759 48.9837L18.3208 50.8216ZM31.9584 36.7883C31.9275 36.784 31.8986 36.7958 31.8677 36.7937C31.7898 36.7894 31.7152 36.7948 31.6373 36.8075C31.5766 36.8182 31.519 36.8299 31.4613 36.8502C31.3931 36.8737 31.3312 36.9057 31.2682 36.944C31.2085 36.9803 31.1541 37.0187 31.1018 37.0667C31.0762 37.089 31.0453 37.0998 31.0218 37.1253L21.6253 47.4167L12.9692 38.9034L18.6354 33.2671C19.0525 32.8511 19.0546 32.1758 18.6386 31.7577C18.4285 31.5476 18.1523 31.4441 17.876 31.4452V31.4442L13.4386 31.4708L13.4941 28.2559L19.7022 28.3093C22.2323 30.8971 25.7609 32.511 29.6649 32.511C30.5396 32.511 31.393 32.4203 32.2239 32.2656C32.3039 32.3296 32.3827 32.3947 32.4831 32.4352L37.3024 34.3553L37.6074 35.872L37.9637 37.6427L31.9584 36.7883ZM40.0406 37.1445L39.4145 34.0287L42.3073 31.8687L43.0647 32.8735L44.2007 34.3818L40.0406 37.1445ZM47.5478 31.4826L45.8721 33.0527L44.0097 30.5802L45.6726 29.3055C45.9829 29.0667 46.3745 28.9695 46.7585 29.0197C47.1446 29.074 47.486 29.2757 47.7185 29.5882C48.1516 30.1717 48.078 30.9856 47.5478 31.4826Z" fill="#2E2F42"/>
<path d="M27.2041 37.0881L22.9182 32.8214C22.5033 32.4065 21.829 32.4065 21.413 32.8214L17.1282 37.0881C16.9277 37.2897 16.8146 37.5606 16.8146 37.8444C16.8146 38.1281 16.9266 38.4001 17.1282 38.6006L21.413 42.8673C21.621 43.0742 21.8942 43.1777 22.1662 43.1777C22.4382 43.1777 22.7112 43.0742 22.9182 42.8673L27.2041 38.6006C27.4046 38.4001 27.5187 38.1281 27.5187 37.8444C27.5187 37.5606 27.4056 37.2886 27.2041 37.0881ZM22.1662 40.606L19.3927 37.8444L22.1662 35.0827L24.9406 37.8444L22.1662 40.606Z" fill="#2E2F42"/>
<path d="M34.3285 10.1415L33.8132 12.213C33.9551 12.2483 37.2885 13.1165 37.2885 16.5107H39.4219C39.4218 12.4764 36.0906 10.5799 34.3285 10.1415Z" fill="#2E2F42"/>
<path d="M39.422 18.644H37.2886V20.7775H39.422V18.644Z" fill="#2E2F42"/>
</svg>

<svg width="64" height="64" fill="none" xmlns="http://www.w3.org/2000/svg"><path d="M63.948 9.048a1.068 1.068 0 0 0-.86-.725l-3.822-.556-1.71-3.462c-.358-.73-1.553-.73-1.912 0l-1.71 3.462-3.82.556a1.067 1.067 0 0 0-.592 1.819l2.765 2.695-.653 3.806c-.068.4.096.804.424 1.043.332.241.765.271 1.124.081L56.6 15.97l3.417 1.797a1.068 1.068 0 0 0 1.548-1.124l-.652-3.806 2.766-2.695a1.07 1.07 0 0 0 .27-1.094Zm-4.926 2.654c-.25.244-.366.598-.306.944l.382 2.228-2.001-1.051a1.064 1.064 0 0 0-.994 0l-2.001 1.051.381-2.228a1.068 1.068 0 0 0-.306-.944l-1.62-1.579 2.238-.325c.348-.05.647-.269.803-.584l1-2.026L57.6 9.214c.156.315.456.534.804.584l2.237.325-1.618 1.579ZM52.267 41.044h-2.134v2.134h2.134v-2.134ZM52.267 45.311h-2.134v2.133h2.134v-2.133ZM54.4 43.178h-2.133v2.133H54.4v-2.133ZM50.134 43.178H48v2.133h2.134v-2.133ZM44.8 52.778h-2.133v2.133H44.8v-2.133ZM44.8 57.045h-2.133v2.133H44.8v-2.133ZM46.934 54.911H44.8v2.134h2.134V54.91Z" fill="#4D5AE5"/><path d="M42.667 54.911h-2.134v2.134h2.134V54.91ZM32 48.511h-2.133v2.134H32V48.51ZM32 52.778h-2.133v2.133H32v-2.133ZM34.133 50.645H32v2.133h2.133v-2.133ZM29.867 50.645h-2.134v2.133h2.134v-2.133ZM11.733 12.244H9.6v2.133h2.133v-2.133ZM11.733 16.51H9.6v2.134h2.133v-2.133ZM13.866 14.377h-2.133v2.134h2.133v-2.134ZM9.6 14.377H7.466v2.134H9.6v-2.134Z" fill="#4D5AE5"/><path d="M49.43 28.319a3.548 3.548 0 0 0-2.377-1.41 3.553 3.553 0 0 0-2.68.705l-2.503 1.919h-.001l-3.796 2.835-2.715-1.082c4.842-2.173 8.227-7.016 8.227-12.64C43.585 11 37.34 4.78 29.663 4.78 21.986 4.78 15.74 11 15.74 18.646c0 2.771.828 5.348 2.24 7.517l-5.528-.048h-.01c-.017 0-.03.009-.047.01-.105.004-.209.025-.31.061-.026.01-.052.015-.077.027-.013.005-.025.006-.038.013l-6.466 3.192-.002.001-3.787 1.822a.828.828 0 0 0-.126.07A3.56 3.56 0 0 0 .393 35.9a3.55 3.55 0 0 0 2.112 1.779 3.558 3.558 0 0 0 2.757-.257l2.776-1.476 4.528-2.339 2.714-.015-10.884 10.83c0 .002-.002.002-.003.003l-2.677 2.666a3.298 3.298 0 0 0-.98 2.356c0 .89.347 1.727.98 2.357.65.647 1.504.97 2.358.97.856 0 1.709-.323 2.36-.97l2.629-2.617 3.481-2.6 1.802 1.794-3.523 3.508c-.001.002-.002.002-.003.002L8.142 54.56a3.298 3.298 0 0 0-.98 2.355c0 .89.348 1.727.98 2.358.65.646 1.505.97 2.36.97.854 0 1.71-.324 2.36-.97l2.679-2.667 4.285-4.266c0-.002 0-.003.002-.004l2.019-2-.008-.007c.013-.013.031-.017.044-.031L32.215 38.98l6.942.988a1.052 1.052 0 0 0 .525-.066c.035-.013.066-.03.1-.047.038-.019.078-.03.114-.054l6.427-4.267c.024-.016.036-.041.059-.059.025-.02.057-.028.08-.05l2.544-2.383a3.558 3.558 0 0 0 .423-4.723ZM4.26 35.54c-.346.186-.74.223-1.116.104a1.43 1.43 0 0 1-.425-2.52l2.628-1.264.632 1.849.266.776L4.26 35.54Zm6.995-3.655-3.097 1.6-.51-1.494-.367-1.073 4.053-2-.079 2.967Zm30.199-13.241c0 1.837-.438 3.57-1.198 5.119l-8.363-3.799a3.722 3.722 0 0 0-1.576-2.775l2.928-9.72C38 8.98 41.454 13.416 41.454 18.643Zm-23.578 0c0-6.47 5.289-11.734 11.789-11.734.506 0 1 .043 1.49.105l-2.864 9.507c-.038 0-.075-.011-.114-.011a3.743 3.743 0 0 0-3.745 3.733 3.744 3.744 0 0 0 3.745 3.733c1.389 0 2.589-.766 3.236-1.889l7.725 3.51c-2.15 2.893-5.59 4.78-9.473 4.78-6.5 0-11.789-5.265-11.789-11.734Zm11.913 1.6c0 .882-.724 1.6-1.612 1.6a1.608 1.608 0 0 1-1.612-1.6c0-.882.723-1.6 1.612-1.6.888 0 1.612.718 1.612 1.6ZM4.929 50.292a1.217 1.217 0 0 1-1.708.002 1.188 1.188 0 0 1 0-1.689l1.924-1.917 1.702 1.695-1.917 1.91Zm6.428 7.467a1.216 1.216 0 0 1-1.71.002 1.188 1.188 0 0 1 0-1.689l1.926-1.918.805.801.898.894-1.919 1.91Zm6.964-6.937-.004.002-3.53 3.52-.805-.801-.898-.894 3.527-3.51v-.002s.002 0 .003-.002c.08-.08.13-.176.18-.27.013-.028.04-.052.052-.08.033-.083.038-.171.05-.258.007-.049.028-.095.028-.145 0-.071-.025-.14-.04-.211-.013-.064-.013-.13-.037-.191-.04-.1-.11-.189-.183-.275-.02-.024-.027-.054-.05-.076h-.001l-.002-.004-3.214-3.2c-.034-.034-.078-.048-.116-.077a1.026 1.026 0 0 0-.174-.115.998.998 0 0 0-.187-.066 1.038 1.038 0 0 0-.206-.039 1.044 1.044 0 0 0-.19.01 1.068 1.068 0 0 0-.209.04.975.975 0 0 0-.188.09c-.04.022-.085.03-.122.057l-3.547 2.648-1.801-1.794 4.798-4.773 8.72 8.578-1.854 1.838Zm13.637-14.034c-.03-.004-.06.008-.09.006a1.091 1.091 0 0 0-.406.056.989.989 0 0 0-.194.094c-.06.036-.114.075-.166.123-.026.022-.057.033-.08.058l-9.397 10.292-8.656-8.514 5.666-5.636a1.068 1.068 0 0 0-.759-1.822l-4.437.026.055-3.215 6.208.053a13.897 13.897 0 0 0 9.963 4.202c.875 0 1.728-.09 2.559-.245.08.064.159.129.26.17l4.818 1.92.305 1.516.357 1.77-6.006-.854Zm8.083.357-.627-3.116 2.893-2.16.758 1.005 1.136 1.508-4.16 2.763Zm7.507-5.662-1.676 1.57-1.862-2.473 1.663-1.274c.31-.24.701-.337 1.085-.286.387.054.728.256.96.568.434.584.36 1.398-.17 1.895Z" fill="#2E2F42"/><path d="m27.204 37.088-4.286-4.267a1.066 1.066 0 0 0-1.505 0l-4.285 4.267a1.072 1.072 0 0 0 0 1.513l4.285 4.266a1.066 1.066 0 0 0 1.505 0l4.286-4.266a1.067 1.067 0 0 0 0-1.513Zm-5.038 3.518-2.773-2.762 2.773-2.761 2.775 2.761-2.775 2.762ZM34.328 10.142l-.515 2.071c.142.035 3.475.904 3.475 4.298h2.134c0-4.035-3.331-5.931-5.093-6.37ZM39.422 18.644h-2.133v2.134h2.133v-2.134Z" fill="#2E2F42"/></svg>
